resources/svg/solid/spray-can.svg

<svg fill="currentColor" xmlns="http://www.w3.org/2000/svg" viewBox="0 0 512 512"><!--! Font Awesome Free 6.2.0 by @fontawesome - https://fontawesome.com License - https://fontawesome.com/license/free (Icons: CC BY 4.0, Fonts: SIL OFL 1.1, Code: MIT License) Copyright 2022 Fonticons, Inc. --><path d="M128 0h64c17.7 0 32 14.3 32 32v96H96V32c0-17.7 14.3-32 32-32zM0 256c0-53 43-96 96-96H224c53 0 96 43 96 96V464c0 26.5-21.5 48-48 48H48c-26.5 0-48-21.5-48-48V256zm240 80c0-44.2-35.8-80-80-80s-80 35.8-80 80s35.8 80 80 80s80-35.8 80-80zM320 64c0 17.7-14.3 32-32 32s-32-14.3-32-32s14.3-32 32-32s32 14.3 32 32zm64 32c-17.7 0-32-14.3-32-32s14.3-32 32-32s32 14.3 32 32s-14.3 32-32 32zM512 64c0 17.7-14.3 32-32 32s-32-14.3-32-32s14.3-32 32-32s32 14.3 32 32zM480 192c-17.7 0-32-14.3-32-32s14.3-32 32-32s32 14.3 32 32s-14.3 32-32 32zm32 64c0 17.7-14.3 32-32 32s-32-14.3-32-32s14.3-32 32-32s32 14.3 32 32zM384 192c-17.7 0-32-14.3-32-32s14.3-32 32-32s32 14.3 32 32s-14.3 32-32 32z"/></svg>

<svg fill="currentColor" xmlns="http://www.w3.org/2000/svg" viewBox="0 0 512 512"><!--! Font Awesome Free 6.1.2 by @fontawesome - https://fontawesome.com License - https://fontawesome.com/license/free (Icons: CC BY 4.0, Fonts: SIL OFL 1.1, Code: MIT License) Copyright 2022 Fonticons, Inc. --><path d="M192 0C209.7 0 224 14.33 224 32V128H96V32C96 14.33 110.3 0 128 0H192zM0 256C0 202.1 42.98 160 96 160H224C277 160 320 202.1 320 256V464C320 490.5 298.5 512 272 512H48C21.49 512 0 490.5 0 464V256zM160 256C115.8 256 80 291.8 80 336C80 380.2 115.8 416 160 416C204.2 416 240 380.2 240 336C240 291.8 204.2 256 160 256zM320 64C320 81.67 305.7 96 288 96C270.3 96 256 81.67 256 64C256 46.33 270.3 32 288 32C305.7 32 320 46.33 320 64zM352 64C352 46.33 366.3 32 384 32C401.7 32 416 46.33 416 64C416 81.67 401.7 96 384 96C366.3 96 352 81.67 352 64zM512 64C512 81.67 497.7 96 480 96C462.3 96 448 81.67 448 64C448 46.33 462.3 32 480 32C497.7 32 512 46.33 512 64zM448 160C448 142.3 462.3 128 480 128C497.7 128 512 142.3 512 160C512 177.7 497.7 192 480 192C462.3 192 448 177.7 448 160zM512 256C512 273.7 497.7 288 480 288C462.3 288 448 273.7 448 256C448 238.3 462.3 224 480 224C497.7 224 512 238.3 512 256zM352 160C352 142.3 366.3 128 384 128C401.7 128 416 142.3 416 160C416 177.7 401.7 192 384 192C366.3 192 352 177.7 352 160z"/></svg>
